X: 23471
T: Levenshulme Leap
R: reel
M: 4/4
K: Amajor
Aafe c3 c|cABc BAFB|Aafe c2 BA|FBBc B2 Bc|
Aafe c2 c/c/c|cABc BAEA|EFFE FABc|1 efec B3 c:|2 efec B2 AB||
cEEE EFAB|cFFE FFAB|cEEE EcBA|BBAB AEAB|
cEEE EFAB|cFFE FFEF|Aafe fecB|cecB AEAB|
cEEE EFAB|cFFE FFAB|cEEE EFAB|ce=c^c BEAB|
cEEE EFAB|cFFE FFEF|AAFA BBAB|ccBc efcB||

